dist/images/title-icons/rocket.svg

<svg width="32" height="32" viewBox="0 0 32 32" fill="none" xmlns="http://www.w3.org/2000/svg">
<path d="M31.061 0.001C27.6893 0.0255103 24.3565 0.723734 21.2585 2.05464C18.1605 3.38554 15.3598 5.32227 13.021 7.751L11.331 9.443L9.531 7.643L4.225 9.143L0 13.372L3.7 17.072L3.891 17.263L2.152 20.858L3.3 22.006L0.492 24.813L1.818 26.139L4.625 23.331L5.983 24.689L0.038 30.635L1.364 31.961L7.308 26.016L8.666 27.374L5.859 30.182L7.185 31.508L9.992 28.7L11.14 29.851L14.732 28.11L18.625 32.003L22.852 27.775L24.352 22.475L22.552 20.675L24.243 18.984C26.6163 16.6826 28.5244 13.9458 29.863 10.923C31.3871 7.48884 32.1175 3.75532 32 0L31.061 0.001ZM5.208 10.815L8.985 9.751L10 10.769L5.027 15.751L2.652 13.372L5.208 10.815ZM11.523 27.578L4.423 20.478L5.3 18.669L13.332 26.702L11.523 27.578ZM22.25 23.018L21.181 26.791L18.624 29.351L16.249 26.975L21.226 21.997L22.25 23.018ZM22.935 17.632L21.226 19.342L14.926 25.642L6.356 17.071L12.656 10.771L14.365 9.061C18.5072 4.75771 24.1345 2.196 30.1 1.898C29.805 7.86448 27.2412 13.4927 22.933 17.631L22.935 17.632Z" fill="#FCF9F7"/>
<path d="M22.972 15.071C23.5699 14.4734 23.9772 13.7118 24.1422 12.8827C24.3073 12.0536 24.2228 11.1941 23.8994 10.413C23.5759 9.63194 23.0281 8.96432 22.3252 8.49461C21.6223 8.02489 20.7959 7.77417 19.9505 7.77417C19.1051 7.77417 18.2787 8.02489 17.5758 8.49461C16.8729 8.96432 16.3251 9.63194 16.0017 10.413C15.6782 11.1941 15.5937 12.0536 15.7588 12.8827C15.9238 13.7118 16.3311 14.4734 16.929 15.071C17.7317 15.8699 18.818 16.3185 19.9505 16.3185C21.083 16.3185 22.1694 15.8699 22.972 15.071ZM19.953 9.64702C20.4277 9.64702 20.8917 9.78778 21.2864 10.0515C21.6811 10.3152 21.9887 10.69 22.1703 11.1286C22.352 11.5671 22.3995 12.0497 22.3069 12.5152C22.2143 12.9808 21.9857 13.4084 21.6501 13.7441C21.3144 14.0797 20.8868 14.3083 20.4212 14.4009C19.9557 14.4935 19.4731 14.446 19.0346 14.2643C18.596 14.0827 18.2212 13.7751 17.9575 13.3804C17.6938 12.9857 17.553 12.5217 17.553 12.047C17.555 11.403 18.64 9.64702 19.955 9.64702H19.953Z" fill="#FCF9F7"/>
</svg>

<svg width="32" height="32" fill="none" xmlns="http://www.w3.org/2000/svg"><path d="M31.061.001a25.3 25.3 0 0 0-18.04 7.75l-1.69 1.692-1.8-1.8-5.306 1.5L0 13.372l3.7 3.7.191.191-1.739 3.595L3.3 22.006.492 24.813l1.326 1.326 2.807-2.808 1.358 1.358-5.945 5.946 1.326 1.326 5.944-5.945 1.358 1.358-2.807 2.808 1.326 1.326L9.992 28.7l1.148 1.151 3.592-1.741 3.893 3.893 4.227-4.228 1.5-5.3-1.8-1.8 1.691-1.691a25.755 25.755 0 0 0 5.62-8.061A25 25 0 0 0 32 0l-.939.001ZM5.208 10.815l3.777-1.064L10 10.769l-4.973 4.982-2.375-2.379 2.556-2.557Zm6.315 16.763-7.1-7.1.877-1.809 8.032 8.033-1.809.876Zm10.727-4.56-1.069 3.773-2.557 2.56-2.375-2.376 4.977-4.978 1.024 1.021Zm.685-5.386-1.709 1.71-6.3 6.3-8.57-8.571 6.3-6.3 1.709-1.71A23.465 23.465 0 0 1 30.1 1.898a23.419 23.419 0 0 1-7.167 15.733l.002.001Z" fill="#FCF9F7"/><path d="M22.972 15.071a4.273 4.273 0 1 0-6.043 0 4.283 4.283 0 0 0 6.043 0Zm-3.019-5.424a2.4 2.4 0 1 1-2.4 2.4c.002-.644 1.087-2.4 2.402-2.4h-.002Z" fill="#FCF9F7"/></svg>
